flags/ir.svg

<svg viewBox="0 0 630 360" xmlns="http://www.w3.org/2000/svg" xmlns:xlink="http://www.w3.org/1999/xlink"><path d="m0 0h630v360h-630z" fill="#da0000"/><path d="m0 0h630v240h-630z" fill="#fff"/><path d="m0 0h630v120h-630z" fill="#239f40"/><g transform="translate(8.4 100.4)"><g id="a"><g id="b" fill="none" stroke="#fff" stroke-width="2"><path id="c" d="m0 1h26m-25 9v-5h8v4h8v-4h-5m-8 4h2m20 0h-5v-4h8m0-5v9h8v-9m-4 0v9" transform="scale(1.4)"/><path id="d" d="m0 7h9m1 0h9" transform="scale(2.8)"/><use xlink:href="#d" y="120"/><use xlink:href="#c" y="145.2"/></g><g id="e"><use x="56" xlink:href="#b"/><use x="112" xlink:href="#b"/><use x="168" xlink:href="#b"/></g></g><use x="168" xlink:href="#e"/><use x="392" xlink:href="#a"/></g><g fill="#da0000" transform="matrix(45 0 0 45 315 180)"><g id="f"><path d="m-.54815.83638a.912046.912046 0 0 0 .876694-1.558764 1 1 0 0 1 -.876694 1.558764"/><path d="m.618339.661409a.763932.763932 0 0 0 -.196695-1.402458 1 1 0 0 1 .196695 1.402458"/><path d="m0 1-.05-1 .05-.787278a.309995.309995 0 0 0 .118034.099087v.587785l-.040225.993311z"/><path d="m-.02-.85.02.018783a.14431.14431 0 0 0 .252075-.136491.136408.136408 0 0 1 -.252075.043074"/></g><use transform="scale(-1 1)" xlink:href="#f"/></g></svg>

<svg xmlns="http://www.w3.org/2000/svg" xmlns:xlink="http://www.w3.org/1999/xlink" viewBox="0 0 630 360">
<rect width="630" height="360" fill="#da0000"/>
<rect width="630" height="240" fill="#fff"/>
<rect width="630" height="120" fill="#239f40"/>
<g transform="translate(8.4,100.4)">
<g id="tb4">
<g id="tb1" fill="none" stroke="#fff" stroke-width="2">
<path id="tbp1" d="M0,1H26M1,10V5H9V9H17V5H12M4,9H6M26,9H21V5H29M29,0V9H37V0M33,0V9" transform="scale(1.4)"/>
<path id="tbp2" d="M0,7H9M10,7H19" transform="scale(2.8)"/>
<use xlink:href="#tbp2" y="120"/>
<use xlink:href="#tbp1" y="145.2"/>
</g>
<g id="tb3">
<use xlink:href="#tb1" x="56"/>
<use xlink:href="#tb1" x="112"/>
<use xlink:href="#tb1" x="168"/>
</g>
</g>
<use xlink:href="#tb3" x="168"/>
<use xlink:href="#tb4" x="392"/>
</g>
<g fill="#da0000" transform="matrix(45,0,0,45,315,180)">
<g id="emblem_half">
<path d="M-0.54815,0.83638A0.912046,0.912046 0 0,0 0.328544,-0.722384A1,1 0 0,1 -0.54815,0.83638"/>
<path d="M0.618339,0.661409A0.763932,0.763932 0 0,0 0.421644,-0.741049A1,1 0 0,1 0.618339,0.661409"/>
<path d="M0,1 -0.05,0 0,-0.787278A0.309995,0.309995 0 0,0 0.118034,-0.688191V-0.100406L0.077809,0.892905z"/>
<path d="M-0.02,-0.85 0,-0.831217A0.14431,0.14431 0 0,0 0.252075,-0.967708A0.136408,0.136408 0 0,1 0,-0.924634"/>
</g>
<use xlink:href="#emblem_half" transform="scale(-1,1)"/>
</g>
</svg>
